tools/download-figma-icons/icons/solid/tools.svg

<svg width="25" height="25" viewBox="0 0 25 25" fill="none" xmlns="http://www.w3.org/2000/svg">
<path fill-rule="evenodd" clip-rule="evenodd" d="M22.1118 18.048L20.2755 17.554L15.8743 13.1536L18.475 10.5514C20.2428 10.9402 22.0861 10.4088 23.3795 9.11548C24.7928 7.70218 25.2961 5.63831 24.6946 3.73105L24.3082 2.50707L20.9595 5.85646L19.4559 5.48717L19.0866 3.9827L22.4321 0.637206L21.2081 0.251546C19.3055 -0.349927 17.2471 0.154157 15.8346 1.56668C14.5428 2.86001 14.013 4.70338 14.3994 6.4743L12.9994 7.87124C12.535 7.22536 12.4571 6.75322 12.4548 6.73764L12.4252 6.46417L7.19578 1.23478C5.5503 -0.410697 2.87172 -0.411477 1.22468 1.23478C-0.408337 2.88182 -0.403663 5.55105 1.23792 7.19264L6.27331 12.228L6.47043 12.4142L6.72831 12.4501C6.75324 12.454 7.22538 12.5303 7.86893 12.9923L6.46497 14.394C4.69795 14.0161 2.85536 14.5428 1.56515 15.8322C0.151843 17.2455 -0.352241 19.3086 0.250011 21.2166L0.63645 22.4414L3.98506 19.092L5.48875 19.4605L5.85805 20.965L2.51333 24.3089L3.73653 24.6953C4.2671 24.8636 4.81014 24.9462 5.34773 24.9462C6.73766 24.9462 8.09175 24.3993 9.11005 23.381C10.4034 22.0877 10.9339 20.2466 10.5498 18.4812L13.1575 15.8719L17.5579 20.2716L18.0519 22.1087L22.4882 24.9969L25 22.485L22.1118 18.048Z" fill="black"/>
</svg>

<svg width="25" height="25" viewBox="0 0 25 25" fill="none" xmlns="http://www.w3.org/2000/svg"><path fill-rule="evenodd" clip-rule="evenodd" d="m22.112 18.048-1.836-.494-4.402-4.4 2.601-2.603a5.309 5.309 0 0 0 4.904-1.436 5.325 5.325 0 0 0 1.316-5.384l-.387-1.224-3.349 3.35-1.503-.37-.37-1.504L22.433.637 21.208.252a5.31 5.31 0 0 0-5.373 1.315 5.322 5.322 0 0 0-1.436 4.907L13 7.871c-.464-.646-.542-1.118-.544-1.133l-.03-.274-5.23-5.23a4.228 4.228 0 0 0-5.97 0 4.227 4.227 0 0 0 .013 5.959l5.035 5.035.197.186.258.036c.025.004.497.08 1.14.542l-1.403 1.402a5.338 5.338 0 0 0-4.9 1.438A5.323 5.323 0 0 0 .25 21.217l.386 1.224 3.35-3.349 1.503.369.37 1.504-3.346 3.344 1.224.386a5.314 5.314 0 0 0 5.374-1.314 5.316 5.316 0 0 0 1.439-4.9l2.607-2.61 4.4 4.4.495 1.838 4.436 2.888L25 22.485l-2.888-4.437Z" fill="currentColor"/></svg>
